assets/img/braze_icons/log-in-01.svg

<svg fill="none" height="24" viewBox="0 0 24 24" width="24" xmlns="http://www.w3.org/2000/svg"><g fill="#801ed7"><path d="m18.089 4.03755c-.4501-.03677-1.0324-.03755-1.889-.03755h-1.2c-.5523 0-1-.44771-1-1 0-.55228.4477-1 1-1h1.2413c.805-.00001 1.4693-.00002 2.0105.04419.5621.04593 1.0788.14449 1.5642.39179.7526.38349 1.3645.99541 1.748 1.74806.2473.48533.3459 1.00204.3918 1.56414.0442.54116.0442 1.20548.0442 2.01039v8.48273c0 .8049 0 1.4693-.0442 2.0105-.0459.5621-.1445 1.0788-.3918 1.5642-.3835.7526-.9954 1.3645-1.748 1.748-.4854.2473-1.0021.3459-1.5642.3918-.5412.0442-1.2055.0442-2.0105.0442h-1.2413c-.5523 0-1-.4477-1-1s.4477-1 1-1h1.2c.8566 0 1.4389-.0008 1.889-.0376.4384-.0358.6626-.1007.819-.1804.3763-.1917.6823-.4977.874-.874.0797-.1564.1446-.3806.1805-.819.0367-.4501.0375-1.0324.0375-1.889v-8.4c0-.85658-.0008-1.43887-.0376-1.88896-.0358-.43842-.1007-.66262-.1804-.81902-.1917-.37632-.4977-.68229-.874-.87403-.1564-.07969-.3806-.14462-.819-.18044z"/><path d="m9.29289 6.29289c.39053-.39052 1.02371-.39052 1.41421 0l5 5.00001c.3905.3905.3905 1.0237 0 1.4142l-5 5c-.3905.3905-1.02368.3905-1.41421 0-.39052-.3905-.39052-1.0237 0-1.4142l3.29291-3.2929h-9.5858c-.55228 0-1-.4477-1-1s.44772-1 1-1h9.5858l-3.29291-3.29289c-.39052-.39053-.39052-1.02369 0-1.41422z"/></g></svg>

<svg width="24" height="24" viewBox="0 0 24 24" fill="none" xmlns="http://www.w3.org/2000/svg">
<path d="M18.089 4.03755C17.6389 4.00078 17.0566 4 16.2 4H15C14.4477 4 14 3.55229 14 3C14 2.44772 14.4477 2 15 2H16.2413C17.0463 1.99999 17.7106 1.99998 18.2518 2.04419C18.8139 2.09012 19.3306 2.18868 19.816 2.43598C20.5686 2.81947 21.1805 3.43139 21.564 4.18404C21.8113 4.66937 21.9099 5.18608 21.9558 5.74818C22 6.28934 22 6.95366 22 7.75857V16.2413C22 17.0462 22 17.7106 21.9558 18.2518C21.9099 18.8139 21.8113 19.3306 21.564 19.816C21.1805 20.5686 20.5686 21.1805 19.816 21.564C19.3306 21.8113 18.8139 21.9099 18.2518 21.9558C17.7106 22 17.0463 22 16.2413 22H15C14.4477 22 14 21.5523 14 21C14 20.4477 14.4477 20 15 20H16.2C17.0566 20 17.6389 19.9992 18.089 19.9624C18.5274 19.9266 18.7516 19.8617 18.908 19.782C19.2843 19.5903 19.5903 19.2843 19.782 18.908C19.8617 18.7516 19.9266 18.5274 19.9625 18.089C19.9992 17.6389 20 17.0566 20 16.2V7.8C20 6.94342 19.9992 6.36113 19.9624 5.91104C19.9266 5.47262 19.8617 5.24842 19.782 5.09202C19.5903 4.7157 19.2843 4.40973 18.908 4.21799C18.7516 4.1383 18.5274 4.07337 18.089 4.03755Z" fill="#801ED7"/>
<path d="M9.29289 6.29289C9.68342 5.90237 10.3166 5.90237 10.7071 6.29289L15.7071 11.2929C16.0976 11.6834 16.0976 12.3166 15.7071 12.7071L10.7071 17.7071C10.3166 18.0976 9.68342 18.0976 9.29289 17.7071C8.90237 17.3166 8.90237 16.6834 9.29289 16.2929L12.5858 13H3C2.44772 13 2 12.5523 2 12C2 11.4477 2.44772 11 3 11H12.5858L9.29289 7.70711C8.90237 7.31658 8.90237 6.68342 9.29289 6.29289Z" fill="#801ED7"/>
</svg>
